icon/cg/glass.svg

<svg viewBox="0 0 24 24" fill="none" xmlns="http://www.w3.org/2000/svg" height="1em" width="1em">
  <path fill-rule="evenodd" clip-rule="evenodd" d="M17 10C17 12.419 15.2822 14.4367 13 14.9V17H15V19H9V17H11V14.9C8.71776 14.4367 7 12.419 7 10V5H17V10ZM15 7H9V10C9 11.6569 10.3431 13 12 13C13.6569 13 15 11.6569 15 10V7Z" fill="currentColor"/>
</svg>

<svg width="24" height="24" fill="none" xmlns="http://www.w3.org/2000/svg"><path fill-rule="evenodd" clip-rule="evenodd" d="M17 10a5.002 5.002 0 0 1-4 4.9V17h2v2H9v-2h2v-2.1A5.002 5.002 0 0 1 7 10V5h10v5Zm-2-3H9v3a3 3 0 1 0 6 0V7Z" fill="currentColor"/></svg>
